X:1
T:Les Orientales
T:Vœu
T:Les Orientales
T:6. Vœu
T:Marie Jaëll 
T:Victor Hugo 
T:Creative Commons copyright waiver (CC0 1.0 Universal)
T:Creative Commons copyright waiver (CC0 1.0 Universal)
T:Creative Commons copyright waiver (CC0 1.0 Universal)
T:Creative Commons copyright waiver (CC0 1.0 Universal)
T:Creative Commons copyright waiver (CC0 1.0 Universal)
T:Creative Commons copyright waiver (CC0 1.0 Universal)
T:Creative Commons copyright waiver (CC0 1.0 Universal)
C:Marie Jaëll
Z:Victor Hugo
Z:Creative Commons copyright waiver (CC0 1.0 Universal)
L:1/8
Q:1/4=144
M:2/4
K:D
V:1 treble nm="Chant\nVoice"
V:1
"^Assez animé" z4 | z4 | z4 | z4 | z4 | z4 | z4 | z4 ||[M:6/8][Q:3/8=216]!pp! F2 G F2 G | %9
w: ||||||||Si j'é- tais la|
 (^G2 A) G2 A | A2 =G G2 F |!<(! G2 G!<)!!>(! ^G2 A/!>)! B/ ||[M:9/8] A3 z2 z z2 A || %13
w: feuil- * le qui|rou- le L'ai- le|tour- noy- an- te du|vent, Qui|
[M:6/8] B2 =c/ c/ B3- |!<(! B A A!<)!!>(! !>!A G G!>)! | =F2 F ^F2 F/ F/ | =c6 ||[M:9/8] z9 || %18
w: flot- te sur l'eau|_ qui s'é- coule, Et qu'on|suit de œil en rê-|vant;||
[M:6/8] F2 G F2 G | (^G2 A) G2 A | A2 =G G2 F | G2 G ^G2 A/ B/ | A3 ^G2 A |!<(! ^d3- d2 d | %24
w: Je me li- vre-|\- rais, _ fraîche en-|co- re, De la|bran- che me dé- ta-|chant, au zé-|\- phir _ qui|
 e ^d c B2 c/ c/!<)! |!mf! =d3-!>(! d e2 | d2 =c/ B/!>)! A3 | z2 z z2!pp! _G | %28
w: souffle à l'au- rore, Au ruis-|seau _ qui|vient du cou- chant.|Plus|
 _A2 _B/ B/ =c2 B/ B/ | _A3 A z ^G | ^G2 F/ F/ E2 D/ D/ | C3 z2 D | C C C A2 F/ D/ | C3 D3 | %34
w: loin que le fleu- ve qui|gron- de, Plus|loin que les vas- tes fo-|\- rêts, Plus|loin que la gor- ge pro-|fon- de,|
 z!<(! ^D ^A!<)! B3 | z2 z z =F =c | _d3 z2 z | z2!f! B ^g3- | g6- | g6- | g3 z2 z | !fermata!z6 | %42
w: Je fui- rais,|je cour-|rais,|j'i- rais!|_||||
 z2 z z2 _A | G2!<(! _A d3/2 d/ d/ d/!<)! |!>(! G3!>)! _A z ^G | =A2 =G/ G/ A2 B/ B/ | e3- e z e | %47
w: Plus|loin que l'an- tre de la|lou- ve, Plus|loin que le bois des ra-|\- miers, _ Plus|
 e2 d/ e/ ^d2 c/ B/ | ^A!<(!"^rit." c c/ ^d/!<)! e3/2 E/ E/ F/ | ^D3 z2 z | z2 z z2 F | %51
w: loin que la plaine où l'on|trouve U- ne fon- taine et trois pal-|\- miers;|Plus|
 ^G2 ^A/ A/!<(! B2 ^B/ B/!<)! |!>(! (c2 ^B)!>)! =B2 ^A | ^^G2 ^G/ G/ ^^F2 ^F/ F/ | E3- E E/ E/ E | %55
w: loin que les ter- res a-|ri- * des Du|chef maure au large ya- ta-|gan, _ Dont le front|
 _E2 =F _G2 _A |!<(! =A3/2 A/ _B/!<)! B/!>(! _c2 B!>)! | =A2 ^G/ ^^F/ G3 | z6 | z6 | %60
w: pâle a plus de|ri- des que la mer un|jour d'ou- ra- gan.|||
 z!f! ^D2-!<(! D E ^F/ G/ | A B c!<)! !fermata!e3- | e2- e z z2 | !fermata!z6 || %64
w: Com- * me par un|charme  at- ti- ré-|* e,||
[M:3/4][Q:3/8=144] z2!p! D2 (3E E E | =F2 z2 G G | A2 z2 B B | !fermata!=c4 ^c2 | ^B4 c c | %69
w: Je m'ar- rê- te|\- rais au ma-|tin Sur My-|kos, la|vil- le car-|
 !fermata!d3 d d2 | c4 =c c | B4 _B B | !fermata!=f6 ||[M:2/4] z4 | z4 | z2 z!f! B | e c/ c/ f2- | %77
w: ré- e, La|ville aux cou-|\- po- les d'é-|tain.|||J'i-|\- rais chez la fil-|
 f _e/ =c/!>(! =d2 | ^c!>)! z z!f! A/ A/ | ^G2 =G2 | =c2 B B | e2- e z | E E =F2 | E2 ^D D/ D/ | %84
w: * le du prê-|tre Chez la|blan- che|fille à l'œil|noir, _|Qui le jour|chante à sa fe-|
 =D D z!p!!<(! _B!<)! | A3 A/ A/ | ^G4 | ^G G!pp! d2- | d2 z2 | z4 || %90
w: \- nê tre, Et|joue à sa|por-|te le soir.|_||
[M:6/8] z!p! F G!<(! F2 G!<)! | (^G2!>(! A) G2!>)! A | A2 =G G2 F |!<(! G2 G ^G2 A/ B/!<)! | %94
w: En- fin, pau- vre|feuille _ en- vo-|lé- e, Je vien-|drais, au gré de mes|
!>(! A3!>)! ^G2 A | ^d3- d c d | c3- c2 B | ^A2 e e3/2 e/ ^d/ c/ | c3/2 B/ B!<(! ^A A B/ B/!<)! | %99
w: vœux, Me po-|ser _ sur son|front, _ mê-|lée Aux bou- cles de ses|blonds che- veux; Comme u- ne per-|
 ^g3- g"^rit." ^B B | ^d c/ z/ c/ c/ (e2 d) | c2 B z2 z | z2 z z2 ^B | ^B3/2 c/ c d =B/ ^G/ B/ d/ | %104
w: ruche _ au pied|les- te Dans le blé _|jau- ne|où|bien en- cor Com- me dans un jar-|
 ^d3- d2 d |"^rit." f3 e2 z | z _B B2 =f2- | f e ^d c3/2 B/ B | z6 |"^rit." z z ^^F ^G2 z || %110
w: din _ cé-|\- les- te|Un fruit vert|_ sur un ar- bre d'or.||Et là,|
[M:2/4] F G ^G A/ A/ | ^A B A/ A/ B ||[M:6/8] =c3/2 c/ B/ A/ d2 B | =f3- f d B/ B/ | (dc) B ^A2 B | %115
w: sur sa tê- te qui|pen- che, Je se- rais,|fût- ce peu d'in- stants, Plus|fiè- * re que l'ai-|\- gret- * te blanche au|
 ^A2 B2 e2 | a4 c d | d6- | d6 | z6 |] %120
w: front é- toi-|lé des sul-|tans.|_||

